X: 3
T: Lexie MacAskill
R: reel
M: 4/4
L: 1/8
K: Bmin
|:B2 B2 ABBA|B2AF DEFA|B2 B2 ABBA|BdcA B2FA|
B2 B2 ABBA|B2AF DEFA|B2 B2 ABBA|BdcA B2Bc||
|:d2cd B2AF|E3F DEFA|d2cd B2AF|BdcA B2Bc|
d2cd B2AF|E2AF DEFA|d2cd B2AF|BdcA B2BA||
|:B2 B2 B2AF|E3F DEFA|B2 B2 B2AF|BdcA B2FA|
B2 B2 B2AF|E3F DEFA|B2 B2 B2AF|BdcA B2Bd||
|:eBBe B2AF|E3F DEFA|eBBe B2AF|BdcA B2d2|
eBBe B2AF|E2AF DEFA|eBBe B2AF|BdcA B2B2||


Tune 1093	Setting 1093

